X: 361
T:The Flying Wheelchair
C:Charlie Lennon
D:Kevin Crawford , In Good Company
R:jig
M:6/8
Z:Jim DiCarlo
K:G
~G3 GED|~E3 AB/c/d|efg edB|Age dBA|
~G3 GED|~E3 AB/c/d|efg edB|ABG EFD:|
|:GAB ~d3|deB dBA|GAE ~e3|efg edB|
GB/c/d efg|eaf g2b|age dBG|ABG EFD:|

